clearscreen window hideturtle
repeat 144 [
  setlabelheight (repcount)
  penup
  fd (quotient (product (repcount) (repcount)) 30)
  label "Logo
  bk (quotient (product (repcount) (repcount)) 30)
  pendown
  rt 10
  wait 5
]
showturtle
