to tree 1 :size
   if less? :size 5 [forward :size back :size stop]
   forward (quotient :size 3)
   left 30 tree (quotient (product :size 2) 3) right 30
   forward (quotient :size 6)
   right 25 tree (quotient :size 2) left 25
   forward (quotient :size 3)
   right 25 tree (quotient :size 2) left 25
   forward (quotient :size 6)
   back :size
end
clearscreen
tree 150
